X:1
T:Title
L:1/8
Q:1/4=140
M:4/4
K:Eb
V:1 treble nm="Church Organ, Staff"
V:1
 G4 G2 A2 | B4 c2 d2 | e4 d2 c2 | B4 G4 | G4 G2 =A2 | B4 B2 c2 | d4 d2 c2 | B8 | A4 B2 A2 | %9
w: By~Henry~J.~Gauntlett * *|||||||||
 G4 B2 B2 | c4 d2 c2 | B4 B4 | e4 d2 c2 | B2 A2 G2 F2- | F2 G2 F2 E2- | E6 z2 |] %16
w: |||||||

